X: 18261
T: Humours Of Maam, The
R: slide
M: 12/8
K: Amajor
d/B/|AGF G2E EFE EFG|A2B c2d efe dcd|
efe dcd efe a2e|edB BAG B2A A2:|
|:((3e/f/g/)|aba efe aba efg|aba gfe dBA GAB|
cBc dcd efe a2e|edB BAG B2A A2:|

